images/cotacao/milk-bottle.svg

<?xml version="1.0" encoding="UTF-8"?> <svg xmlns="http://www.w3.org/2000/svg" xmlns:xlink="http://www.w3.org/1999/xlink" viewBox="0 0 470 470"><g><path d="m332.026,155.641l-45.386-89.926v-20.715h2.5c4.142,0 7.5-3.357 7.5-7.5v-30c0-4.143-3.358-7.5-7.5-7.5h-108.28c-4.142,0-7.5,3.357-7.5,7.5v30c0,4.143 3.358,7.5 7.5,7.5h2.5v20.715l-45.386,89.926c-5.504,10.905-9.816,29.017-9.816,41.233v245.626c0,15.163 12.336,27.5 27.5,27.5h158.683c15.164,0 27.5-12.337 27.5-27.5v-245.626c0-12.217-4.311-30.328-9.815-41.233zm-143.666-140.641h93.279v15h-93.279v-15zm9.196,55.879c0.529-1.048 0.804-2.205 0.804-3.379v-22.5h73.279v22.5c0,1.174 0.275,2.331 0.804,3.379l28.543,56.553c-5.411,1.754-9.204,4.583-12.487,7.037-4.452,3.329-7.669,5.733-14.841,5.733s-10.389-2.404-14.841-5.733c-5.196-3.884-11.663-8.719-23.823-8.719-12.159,0-18.625,4.835-23.821,8.72-4.451,3.328-7.667,5.732-14.838,5.732s-10.387-2.404-14.838-5.732c-3.282-2.454-7.075-5.283-12.485-7.037l28.544-56.554zm129.285,371.621c0,6.893-5.607,12.5-12.5,12.5h-158.682c-6.893,0-12.5-5.607-12.5-12.5v-245.626c0-9.874 3.758-25.661 8.207-34.476l10.736-21.271c4.305,0.797 6.999,2.802 10.415,5.355 5.195,3.885 11.662,8.72 23.82,8.72 12.158,0 18.625-4.835 23.82-8.72 4.451-3.328 7.667-5.732 14.838-5.732 7.172,0 10.389,2.404 14.841,5.733 5.196,3.885 11.663,8.719 23.822,8.719 12.16,0 18.626-4.835 23.823-8.719 3.416-2.554 6.111-4.559 10.417-5.356l10.736,21.272c4.448,8.813 8.207,24.601 8.207,34.475v245.626z"></path><path d="m165.659,395c-4.142,0-7.5,3.357-7.5,7.5v30c0,4.143 3.358,7.5 7.5,7.5s7.5-3.357 7.5-7.5v-30c0-4.143-3.358-7.5-7.5-7.5z"></path><path d="m174.832,165.842c-3.698-1.866-8.208-0.382-10.075,3.315-3.33,6.598-6.598,20.326-6.598,27.717v175.626c0,4.143 3.358,7.5 7.5,7.5s7.5-3.357 7.5-7.5v-175.626c0-5.071 2.704-16.431 4.989-20.957 1.866-3.698 0.381-8.209-3.316-10.075z"></path><path d="m220.86,75h28.279c4.142,0 7.5-3.357 7.5-7.5s-3.358-7.5-7.5-7.5h-28.279c-4.142,0-7.5,3.357-7.5,7.5s3.358,7.5 7.5,7.5z"></path></g></svg>

<svg width="470" height="470" viewBox="0 0 470 470" fill="none" xmlns="http://www.w3.org/2000/svg">
<g clip-path="url(#clip0)">
<path d="M332.026 155.641L286.64 65.715V45H289.14C293.282 45 296.64 41.643 296.64 37.5V7.5C296.64 3.357 293.282 0 289.14 0H180.86C176.718 0 173.36 3.357 173.36 7.5V37.5C173.36 41.643 176.718 45 180.86 45H183.36V65.715L137.974 155.641C132.47 166.546 128.158 184.658 128.158 196.874V442.5C128.158 457.663 140.494 470 155.658 470H314.341C329.505 470 341.841 457.663 341.841 442.5V196.874C341.841 184.657 337.53 166.546 332.026 155.641ZM188.36 15H281.639V30H188.36V15ZM197.556 70.879C198.085 69.831 198.36 68.674 198.36 67.5V45H271.639V67.5C271.639 68.674 271.914 69.831 272.443 70.879L300.986 127.432C295.575 129.186 291.782 132.015 288.499 134.469C284.047 137.798 280.83 140.202 273.658 140.202C266.486 140.202 263.269 137.798 258.817 134.469C253.621 130.585 247.154 125.75 234.994 125.75C222.835 125.75 216.369 130.585 211.173 134.47C206.722 137.798 203.506 140.202 196.335 140.202C189.164 140.202 185.948 137.798 181.497 134.47C178.215 132.016 174.422 129.187 169.012 127.433L197.556 70.879V70.879ZM326.841 442.5C326.841 449.393 321.234 455 314.341 455H155.659C148.766 455 143.159 449.393 143.159 442.5V196.874C143.159 187 146.917 171.213 151.366 162.398L162.102 141.127C166.407 141.924 169.101 143.929 172.517 146.482C177.712 150.367 184.179 155.202 196.337 155.202C208.495 155.202 214.962 150.367 220.157 146.482C224.608 143.154 227.824 140.75 234.995 140.75C242.167 140.75 245.384 143.154 249.836 146.483C255.032 150.368 261.499 155.202 273.658 155.202C285.818 155.202 292.284 150.367 297.481 146.483C300.897 143.929 303.592 141.924 307.898 141.127L318.634 162.399C323.082 171.212 326.841 187 326.841 196.874V442.5V442.5Z" fill="black"/>
<path d="M165.659 395C161.517 395 158.159 398.357 158.159 402.5V432.5C158.159 436.643 161.517 440 165.659 440C169.801 440 173.159 436.643 173.159 432.5V402.5C173.159 398.357 169.801 395 165.659 395Z" fill="black"/>
<path d="M174.832 165.842C171.134 163.976 166.624 165.46 164.757 169.157C161.427 175.755 158.159 189.483 158.159 196.874V372.5C158.159 376.643 161.517 380 165.659 380C169.801 380 173.159 376.643 173.159 372.5V196.874C173.159 191.803 175.863 180.443 178.148 175.917C180.014 172.219 178.529 167.708 174.832 165.842Z" fill="black"/>
<path d="M220.86 75H249.139C253.281 75 256.639 71.643 256.639 67.5C256.639 63.357 253.281 60 249.139 60H220.86C216.718 60 213.36 63.357 213.36 67.5C213.36 71.643 216.718 75 220.86 75Z" fill="black"/>
</g>
<defs>
<clipPath id="clip0">
<rect width="470" height="470" fill="white"/>
</clipPath>
</defs>
</svg>
